assets/fonts/icomoon/re/icon/tables/tables-edit.svg

<!-- Generated by IcoMoon.io -->
<svg version="1.1" xmlns="http://www.w3.org/2000/svg" width="32" height="32" viewBox="0 0 32 32">
<title>tables-edit</title>
<path d="M16 0c-8.821 0-16 7.177-16 16 0 4.578 1.943 8.7 5.034 11.62 1.921 1.813 4.288 3.151 6.918 3.84 1.296 0.341 2.648 0.54 4.048 0.54s2.753-0.199 4.047-0.54c2.47-0.647 4.705-1.865 6.559-3.515 3.3-2.932 5.394-7.194 5.394-11.945 0-8.823-7.178-16-16-16zM16 30.2c-4.411 0-8.359-2.021-10.966-5.188-2.021-2.453-3.236-5.595-3.236-9.014 0-7.831 6.37-14.201 14.202-14.201s14.203 6.371 14.203 14.202c0 3.612-1.369 6.902-3.598 9.412-2.602 2.931-6.386 4.789-10.605 4.789v0z"></path>
<path d="M23.65 10.454l-2.104-2.104c-0.35-0.35-0.917-0.35-1.267 0 0 0 0 0 0 0.001l-1.763 1.762 3.371 3.371 1.763-1.762c0.35-0.35 0.35-0.916 0-1.268 0 0.001 0 0.001 0 0z"></path>
<path d="M8.629 20.001v3.37h3.371l8.988-8.989-3.371-3.371-8.988 8.99zM11.254 21.573h-0.827v-0.826l7.19-7.192 0.827 0.827-7.19 7.191z"></path>
</svg>

<?xml version="1.0" encoding="utf-8"?>
<!-- Generator: Adobe Illustrator 16.0.0, SVG Export Plug-In . SVG Version: 6.00 Build 0)  -->
<!DOCTYPE svg PUBLIC "-//W3C//DTD SVG 1.1//EN" "http://www.w3.org/Graphics/SVG/1.1/DTD/svg11.dtd">
<svg version="1.1" id="Layer_1" xmlns="http://www.w3.org/2000/svg" xmlns:xlink="http://www.w3.org/1999/xlink" x="0px" y="0px"
	 width="32px" height="32px" viewBox="0 0 32 32" enable-background="new 0 0 32 32" xml:space="preserve">
<title>user-settings-3</title>
<path d="M16,0C7.179,0,0,7.177,0,16c0,4.578,1.943,8.7,5.034,11.62c1.921,1.813,4.288,3.151,6.918,3.84C13.248,31.801,14.6,32,16,32
	c1.4,0,2.753-0.199,4.047-0.54c2.47-0.647,4.705-1.865,6.559-3.515C29.906,25.013,32,20.751,32,16C32,7.177,24.822,0,16,0z M16,30.2
	c-4.411,0-8.359-2.021-10.966-5.188c-2.021-2.453-3.236-5.595-3.236-9.014C1.798,8.167,8.168,1.797,16,1.797
	c7.832,0,14.203,6.371,14.203,14.202c0,3.612-1.369,6.902-3.598,9.412C24.003,28.342,20.219,30.2,16,30.2L16,30.2z"/>
<path d="M23.65,10.454l-2.104-2.104C21.196,8,20.629,8,20.279,8.35c0,0,0,0,0,0.001l-1.763,1.762l3.371,3.371l1.763-1.762
	C24,11.372,24,10.806,23.65,10.454C23.65,10.455,23.65,10.455,23.65,10.454z"/>
<path d="M8.629,20.001v3.37H12l8.988-8.989l-3.371-3.371L8.629,20.001z M11.254,21.573h-0.827v-0.826l7.19-7.192l0.827,0.827
	L11.254,21.573z"/>
</svg>
